!!!OTL: WIE HEHR IM GLASE BLINKET
!!!ARE: Europa, Mitteleuropa, Deutschland
!!!SCT: F0701
!!!YEM: Copyright 1995, estate of Helmut Schaffrath.
**kern
*ICvox
*Ivox
*M4/4
*k[f#c#]
*D:
{4A
=1
4d
4D
4F#
4D
=2
4.A
8B
4A}
{4e
=3
4f#
4e
4d
4f#
=4
2e
4r}
{4A
=5
4d
4A
4f#
4f#
=6
4.e
8d
4c#}
{4c#
=7
4d
4e
4f#
8d
8B
=8
2A
4r}
{4A
=9
4e
4A
4f#
4A
=10
4.g
8f#
4e}
{4e
=11
4.f#
8f#
4f#
4f#
=12
4.d
8c#
4B
4r}
=13
{2g
8g
8g
8g
8g
=14
2g
2r}
=15
{2e
8e
8e
8e
8e
=16
2e
4r}
{4e
=17
4f#
4d
4B
4G#
=18
1A
=19
2D
4r}
==
!!!AGN: Geselligkeits -, Trink - Lied
!!!ONB: ESAC (Essen Associative Code) Database: FINK
!!!AMT: simple quadruple
!!!AIN: vox
!!!EED: Helmut Schaffrath
!!!EEV: 1.0
*-
